X:1
T:My Father Leads Me
T:Charles Hutchinson Gabriel
T:My Father Leads Me
T:Public Domain
T:Public Domain
C:Charles Hutchinson Gabriel
Z:Public Domain
%%score ( 1 2 ) ( 3 4 )
L:1/8
M:6/8
K:Eb
V:1 treble 
V:2 treble 
V:3 bass 
V:4 bass 
V:1
 E | [EG]2 [EG] [EF]2 E | [EB]2 [Ec] [EB]2 [EG] | [EG]2 [DF] [DF]2 [FA] | [FA]2 [EG] [EG]2 E | %5
w: 1.~My|ther leads me, and|tent, I trust in|Him to choose my|way; I know that|
w: 2.~My|ther leads, and oft-|times, Thro’ thorn- y|paths, my wear- y|feet; But by His|
w: 3.~And|I reach the riv-|wide Whose storm- y|wa- ters dark- ly|flow, He’ll hold my|
 [EG]2 [EG] [EF]2 E | [EB]2 [Ec] [EB]2 [EG] | [EF]2 [EG] [E=A]2 [EF] | [DB]2 [Ec] [Fd]2 [Ad] | %9
w: ing by His side|feet may ne- ver|go a- stray; I|know my Fa- ther|
w: I need not fear|blind- ing storms a-|round me beat; For|as my days my|
w: and guide me safe|to the ha- ven|I would go; And|there my song shall|
 [Ge]2 [Ee] [Ed]2 [Ec] | [EB]2 [EB] [EG]2 [EB] | [DB]2 [DF] [DF]2 [Dc] | [EB]2 [EG] [EG]2 || %13
w: lead- eth me, He|lead- eth me, He|lead- eth me. He|lead- eth me,|
w: strength shall be— I|know my Fa- ther|lead- eth me. *||
w: ev- er be, I|know my Fa- ther|lead- eth me. *||
"^Refrain" [AB] | (GAB ed)[Ac] | (G2 G [EG]2) [EB] | [Ec]2 [Ee] [EB]2 E | [EG]2 [DF] [B,E]2 |] %18
w: I|know * * * * my|lead- * * eth|||
w: |||||
w: |||||
V:2
 E | x5 E | x6 | x6 | x5 E | x5 E | x6 | x6 | x6 | x6 | x6 | x6 | x5 || x | e3- A2 x | B3 x3 | %16
w: Fa-|con-|||walk-|My|||||||||Fa- ther|me.|
w: Fa-|en-|||side|Tho’|||||||||||
w: when|er|||hand|In-|||||||||||
 x5 E | x5 |] %18
w: ||
w: ||
w: ||
V:3
 [E,G,] | [E,B,]2 [E,B,] [E,A,]2 [E,G,] | [E,G,]2 [E,A,] [E,G,]2 [E,B,] | %3
w: ~|~ ~ ~ ~|~ ~ ~ ~|
 [B,,B,]2 [B,,B,] [B,,B,]2 [B,,B,] | [E,B,]2 [E,B,] [E,B,]2 [E,G,] | %5
w: ~ ~ ~ ~|~ ~ ~ ~|
 [E,B,]2 [E,B,] [E,A,]2 [E,G,] | [E,G,]2 [E,A,] [E,G,]2 [E,B,] | [F,=A,]2 [F,B,] [F,C]2 [F,A,] | %8
w: ~ ~ ~ ~|~ ~ ~ ~|~ ~ ~ ~|
 [B,,B,]2 [B,,B,] [B,,B,]2 B, | [E,B,]2 [G,B,] [A,B,]2 A, | [E,G,]2 [E,G,] [E,B,]2 [E,G,] | %11
w: ~ ~ ~ ~|~ ~ ~ ~|~ ~ ~ ~|
 [B,,F,]2 [B,,B,] [B,,B,]2 [B,,B,] | [E,G,]2 [E,B,] [E,B,]2 || B, | (E,F,)[G,E] [A,C]2 [A,E] | %15
w: ~ ~ ~ ~|~ He lead-|eth|He * lead- eth me|
 [E,E]2 [E,E] [E,B,]2 [E,G,] | A,2 [A,C] [G,E]2 [E,G,] | [B,,B,]2 [B,,A,] [E,G,]2 |] %18
w: |||
V:4
 x | x6 | x6 | x6 | x6 | x6 | x6 | x6 | x5 B, | x5 A, | x6 | x6 | x5 || B, | B,2 x4 | x6 | A,2 x4 | %17
w: ||||||||~|~||||me,||||
 x5 |] %18
w: |

